X: 131
T: Kuiwu de shengqi A pretty body (S. 555)
L: 1/16
M: 2/4
K: C
A2> G2 A2 C D [I:setbarnb 1]| 
E2> G2 E2 A,2 | 
A2> G2 A2 C D | 
E8 | 
A2> G2 A2 C D | 
E2> A2 G,2 A,2 | 
D D2 C G, A, C2 | 
A,8 |]

@@@ Tune index: 8799
